X: 1
T: The Three-Mile Bridge
R: strathspey
M: 4/4
L: 1/8
K: Bmin
|:B2 B>c d<fb>a|e<Ac>e f>ec>A|B2 B>c d<fb>a|e>A (3cBA F<BB>c:|
|:(3dcB f>c (3dcB f>B|(3cBA e>A (3cBA c>A|B2 B>c d<fb>a|e>A (3cBA F<B B2:|
|:f2 f>e f<BB>c|e2 e>c (3ABc e2|f2 f>e f<ab>a|e>A (3cBA F<B B2:|
|:d>fc>e d<BB>d|c<eB<d c<AA>c|d<BB>d f<ab>a|e>A (3cBA F<B B2:|

